X:1
T:Laura celeste
T:Laura celeste
T:Giovan Nasco
T:Source : Symphonia Angelica---Anversa---P.Phalesio & G.Bellero---1585. Editor : André Vierendeels (19/01/14).
C:Giovan Nasco
%%score [ 1 2 [ 3 4 ] ]
L:1/8
Q:1/4=90
M:4/4
K:F
V:1 treble nm="Canto" snm="C"
V:2 treble nm="Alto" snm="A"
V:3 treble-8 nm="Tenor 1" snm="T 1"
V:4 treble-8 nm="Tenor 2" snm="T 2"
V:1
 z8 | z8 | d4 d2 d2 | c8 | B2 d4 d2 | d2 d2 c4 | A4 z2 F2 | G2 G2 B2 B2 | A8- | A4 z4 | d4 c2 c2 | %11
w: ||Lau- ra ce-|le-|ste, che si|dol- ce- men-|te pas-|sa per gl'oc- chi|miei|_|den- tro nel|
 B4 A2 B2 | G2 G2 ^F4 | G4 D4 | F3 G A2 A2 | B8 | A4 A3 A | B3 c d2 c2- | cB B4 A2 | B3 c d4- | %20
w: co- re, den-|tre nel co-|re fe-|co _ _ ne|por-|t'un spi- ri-|to _ _ d'a-|* * mo- *|re, _ _|
 d4 z2 d2 | g2 g4 f2 | f4 d2 d2 | f2 e2 d4 | c3 B A2 A2 | B2 B4 A2 | B4 B3 c | d2 d2 f2 f2 | %28
w: _ ch'in|al- tie- ro|de- sio de-|sta mia men-|te, _ _ ch'in|al- tie- ro|de- sio, _|_ de- sta mia|
 _e4 d4 | z2 G2 A2 G2 | G8 | G8 | z4 A4 | B3 B G2 G2 | c4 B4 | G4 c3 c | A2 A2 B3 B | A2 G4 F2 | %38
w: men- te,|un ar- mo-|ni-|a|nel|suo spi- rar si|sen- te|nel suo spi-|rar, nel suo spi-|rar si sen-|
 G8 | z2 d4 g2- | g2 f2 fe dc | B2 B2 A2 A2- | A2 c4 B2- | BA A4 G2 | A8 | z2 A4 c2- | %46
w: te,|cui nan-|* zi non _ _ _|_ puo star i-|* ra'e do-|* * lo- *|re,|et tra-|
 c2 B2 A2 d2- | d2 c2 d2 A2 | B2 G2 A4 | G8 | F2 F4 F2 | G4 A4 | B8 | A4 A4 | B2 G2 B4 | %55
w: * he con se-|* * co et|tra- he con|se-|co di ce-|le- st'o-|do-|re, che|fa'i cor lie-|
 A2 A2 A3 G | F2 D2 B2 A2- | AG G3 F/E/ F2 | G2 G2 B3 c | de f4 e2- | e2 d3 c c2 | d2 A2 A3 B | %62
w: ti, et l'a- ni-|me con- ten- *||te, che fa'i _|_ _ _ cor|_ lie- * *|te, et l'a- ni-|
 G2 G2 F4 | G4 z2 A2 | B3 B B4- | B2 G2 B4 | A8 || z4 d4 | d2 d2 c2 A2 | =B3 c d2 d2 | G2 G2 B4 | %71
w: me con- ten-|te, et|l'a- ni- me|_ con- ten-|te.|Et|io che sem- pre|de- * * sio-|so e'in- ten-|
 A4 G4 | z2 G2 F2 F2 | G2 A2 B4- | B4 A4 | A2 A2 G4 | A2 A2 c2 c2 | B2 B2 B2 F2 | A3 B c2 c2 | %79
w: * to,|t'en- g'al- la|sua vir- tu-|* te'a-|per- t'il se-|no, t'en- g'al- la|sua vir- tu- te'a|per- * * to'il|
 d4 d4 | z2 =B4 B2 | c8 | d4 z2 d2- | d2 d2 _e4 | d2 d4 d2 | B4 A2 A2 | B4 B4 | G8 | F2 F2 B2 B2 | %89
w: se- no,|che non|pas-|co il|_ cor mi-|o, il cor|mi- o di|piu dol-|c'es-|ca so- pr'il cer-|
 A2 A2 G2 G2 | B4 A2 A2- | A2 GF G4 | A2 A2 c2 c2 | B2 B2 A4 | G4 B4 | F2 B4 A2 | B4 z4 | %97
w: chio d'a- mor ra-|pir mi sen-||to, so- pr'il cer-|chio d'a- mor|ra- pir|mi sen- *|to,|
 z2 B2 B2 A2 | B4 G4 | A4 z2 G2 | A2 B2 G4 | A4 z2 F2 | G2 A2 B4 | A4 z2 A2 | F2 F2 G2 G2 | A4 c4 | %106
w: O- ve re-|cha fra|noi si|bel se- re-|no, si|bel se- re-|no, O-|ve re- cha fra|noi si|
 c2 B2 c4 | c8 | z4 d4- | d4 ^c4 | z4 d4- | d4 B4 | z4 c4 | A8 | z4 A4 | B8 | A4 G4- | G2 FE ^F4 | %118
w: bel se- re-|no,|Lau-|* ra,|dol-|* ce,|gen-|til,|so-|a-|v'e fre-||
 G8- | G8- | G8- | G8 |] %122
w: scha.|_|||
V:2
 B8 | A8 | F4 F3 G | A8 | D2 B4 B2 | B2 B2 A4 | F2 F2 C2 C2 | _E2 E2 D2 D2 | F2 F2 E4 | %9
w: Lau-|ra|ce- le- *||ste, che si|dol- ce- men-|te pas- sa per|gl'oc- chi miei den-|tro nel co-|
 F2 F2 E2 A2 | F3 G A2 A2 | D4 F4 | _E2 C2 D4 | B,8 | z2 D2 D2 C2 | D4 G4 | ^F3 F F2 F2 | %17
w: re, pas- sa per|gl'oc- * * chi|miei den-|tro nel co-|re|fe- co ne|por- t'un|spi- ri- to d'a-|
 G3 A B2 A2 | F4 F3 F | D2 G4 F2 | G2 G,2 D2 D2- | D2 C2 D4 | D2 A2 F2 G2 | A3 G F4 | E2 E2 F4 | %25
w: mo- * * re,-|un spi- ri-|to d'a- mo-|re, ch'in al- tie-|* ro de-|sio de- sta mia|men- * te,|ch'in al- tie-|
 D2 G4 F2 | G2 D2 G2 G2 | F4 D2 A2 | G2 G2 F4 |"^-natural""^-natural" D3 E F2 E2 | E2 E2 D4 | E8 | %32
w: ro de- *|sio de- sta mia|men- te, de-|sta mia men-|te, _ _ un|ar- mo- ni-|a|
 C4 F3 F | D2 D2 E4 | E2 E2 G3 G | E2 E2 E4 | F2 F2 D3 D | F2 _E2 D4 | D4 z2 D2 | _E2 D2 D2 C2 | %40
w: nel suo spi-|rar si sen-|te nel suo spi-|rar si sen-|te, nel suo spi-|rar si sen-|te, cui|nan- zi non puo|
 D4 z2 F2- | FD G2 F2 E2 | F2 G4 D2 | F2 F2 D4 | F4 z2 D2- | D2 F4 _E2- | E2 D2 F3 _E/D/ | %47
w: star i-|* * * ra'e do-|lo _ _|re, do- lo-|re, et|_ tra- he|_ con se- * *|
"^-natural" F2 E2 F4 | D3 E F4 | _E2 D4 C2 | D4 z2 D2 | D2 G4 F2 | G4 D2 D2 | F4 F4 | D6 E2 | %55
w: * co et|tra- * he|con- se- *|co di|ce- le- st'o-|do- re, che|fa'i cor|lie- *|
 F4 F4 | z2 D2 D3 D | _E2 E2 D4 | D2 D2 G3 G | F2 A2 A3 A | F2 G2 A4 | F2 F2 F3 F | _E2 E2 D4 | %63
w: * ti|et l'a- ni-|me con- ten-|te, et l'a- ni-|me,- et l'a- ni-|me con- ten-|te, et l'a- ni-|me con- ten-|
 D2 D2 F3 F | D2 G2 F3 F | G2 B2 G4 | ^F8 || G4 G2 G2 | F2 D2 E2 F2 | G2 D2 F4 | _E4 D2 D2 | %71
w: te, et l'a- ni-|me,- et l'a- ni-|me con- ten-|te.|Et io che|sem- pre de- sio-|so e'in- ten-|* to, et|
 C2 F2 _E2 D2 | D2 C2 D2 D2- | D2 D2 G4 | F2 F2 F2 F2 | F2 F2 D3 E | F2 C2 G4- | G2 G2 F4 | %78
w: io che sem- pre|de- * sio- so,|_ e'in- ten-|to, t'en- g'al- la|sua- vir- tu- *|* te'a- per-|* to'il se-|
 F2 F2 G2 G2 | B4 A4 | z2 G4 G2 | G8 | B4 z2 B2- | B2 B2 B4 | B2 B4 B2 | G4 ^F2 F2 | G4 G4 | _E8 | %88
w: no, a- per- to'il|se- no,|che non|pas-|co il|_ cor mi-|o, il cor|mi- o di|piu dol-|c'es-|
 D2 D2 F2 F2 | F2 C2 _E4 | D4 F2 F2 | FEDC B,4 | C4 G4 | G2 G2 F2 F2 | _E4 D4 | D2 B,2 F4 | %96
w: ca so- pr'il cer-|chio d'a- mor|ra- pir mi|sen- * * * *|to, so-|pr'il cer- chio d'a-|mor ra-|pir mi sen-|
 D4 z2 F2 | F2 E2 F2 E2 | D2 D2 E2 E2 | F4 C4 | z2 F2 F2 E2 | F2 C2 D4- | D2 C2 D2 E2 | F4 C2 C2 | %104
w: to, O-|ve re- cha fra|noi si- bel se-|re- no,|O ve- re|cha fra noi|_ si bel se-|re- no, O-|
 D2 D2 D2 E2 | F4 A4 | G2 F2 G4 | A8 | z4 A4- | A4 A4 | z4 A4- | A4 G4 | z4 G4 | F8 | z4 F4- | %115
w: ve re- cha fra|noi si|bel se- re-|no,|Lau-|* ra,|dol-|* ce,|gen-|til,|so-|
 F4 F4- | F4 _E4 | D3 C A,4 | =B,4 C4 | C4 =B,4 |"^b" C3 D E4 | D8 |] %122
w: * a-|* v'e|fre- * *|||||
V:3
 d8 | f8 | d4 d3 e | f4 e4 | g4 f2 f2- | f2 g2 e4 | d4 A4 | c2 c2 B2 G2 | A2 d2 d2 c2 | d4 A2 f2 | %10
w: Lau-|ra|ce- le- *|* ste,|che si dol-|* ce- men-|te pas-|sa per gl'oc- chi|miei den- tro nel|co- re, pas-|
 d3 e f2 e2 | g2 g2 c2 d2 | B2 G2 A4 | G4 z2 G2 | d3 e f2 e2 | g4 d4 | d6 d2 | G2 G2 g2 _e2 | %18
w: sa _ _ per|gl'oc- chi miei den-|tro nel co-|re fe-|co _ _ ne|por- t'un|spi- ri-|to,- un spi- ri-|
 d2 d2 c4 | B4 A4 | B6 A2 | B2 G2 A4 | D2 D2 d2 d2- | d2 c2 d4 | A2 A2 d2 d2 | G4 d2 d2 | %26
w: to d'a- mo-|re, un|spi- ri-|to d'a- mo-|re, ch'in al- tie-|* ro de-|sio de- sta mia|men- te, de|
 dc BA G2 G2 | B4 A2 d2 | _e2 c2 d4 | B4 c4 | c4 B4 | c4 G2 G2 | A3 A d4- | d2 G2 c3 B | A4 G2 G2 | %35
w: sta _ _ _ _ mia|men- te, de-|sta mia men-|te, un|ar- mo-|ni- a nel|suo spi- rar|_ si sen- *|* te, nel|
 c3 c A2 A2 | d4 B2 G2 | c3 c B2 A2 | B4 G2 G2 | B2 A2 B2 G2 | B2 A2 d4- | d2 d2 c3 B | %42
w: suo spi- rar si|sen- te, nel|suo spi- rar si|sen- te, cui|nan- zi non puo|star, cui nan-|* zi non _|
 c2 e2 d2 B2 | c2 d2 B4 | A2 A2 f4- | f2 d2 z4 | z8 | z2 A4 d2- | dc B2 A2 A2 | B3 A G4 | %50
w: _ puo star, i-|ra'e do- lo-|re, do- lo-|* re,||et tra-|* * * he con|se- * co|
 A2 A4 A2 | B3 A/G/ d4- | d2 d2 g4 | c2 c2 d2 d2 | B8 | c8 | z2 G2 G2 A2 | B2 c2 A4 | G2 G2 d4- | %59
w: di ce- le-||* st'o- do-|re, che fa'i cor|lie-|ti|et l'a- ni-|me con- ten-|te, che fa'i|
 d4 c4 | d3 e f2 e2 | z2 d2 d3 d | B2 c2 A4 | G2 G2 d3 d | B2 G2 d4 | d8- | d8 || z8 | z4 z2 d2 | %69
w: _ cor|lie- * * ti|et l'a- ni-|me con- ten-|te, et l'a- ni-|me, con- ten-|te.|_||Et|
 G2 G2 A2 A2 | c2 c2 F2 F2 | A4 B4 | G4 z2 A2 | B2 A2 d4 | d4 c2 c2 | d2 d2 B4 | c2 c2 _e2 e2 | %77
w: io che sem- pre|de- sio- so e'in-|ten- *|to, t'en-|g'al- la sua|vir- tu- te'a-|per- to'il se-|no, t'en- g'al- la|
 d4 d4 | c2 c2 _e4 | d2 g4 f2 | g2 d4 d2 | e8 | f4 z2 f2- | f2 f2 g4 | f2 f4 g2 | d4 d2 d2 | %86
w: sua vir-|tu- te'a- per-|to'il se- *|no, che non|pas-|co il|_ cor mi-|o, il cor|mi- o, di-|
 d4 d4 | c8 | A2 A2 d2 d2 | c6 c2 | G2 B2 c2 d2 | d4 d2 d2 | f2 f2 _e2 e2 | d2 d2 d2 c2 | %94
w: piu dol-|c'es-|ca so- pr'il cer-|chio d'a-|mor ra- pir mi|sen- to so-|pr'il cer- chio d'a-|mor ra- pir mi|
 c4 B2 G2 |"^b" d2 e2 c4 | B2 d2 d2 c2 | d2 B2 c2 c2 | G2 G2 c4 | F2 f2 f2 e2 | f2 d2 c4 | F4 B4- | %102
w: sen- to ra-|pir mi sen-|to, O- ve re-|cha fra noi si|bel se- re-|no, O- ve re-|cha fra noi|si bel|
 B2 A2 G4 | F8 | z2 B2 B2 B2 | c2 c2 f2 f2 | e2 d2 e4 | f8 | z4 f4- | f4 e4 | z4 f4- | f4 d4 | %112
w: _ se- re-|no,|O- ve re-|cha fra noi si|bel se- re-|no,|Lau-|* ra,|dol-|* ce,|
 z4 _e4 | d8 | z4 d4 | d4 d4 | c8 | A4 d4- | d4 e4- | e4 d4 |"^b" e3 d c4 | =B8 |] %122
w: gen-|til,|so-|a- v'e|fre-|scha, so-|* a-|* v'e|fre- * *|scha.|
V:4
 G8 | d6 A2 | B8 | A8 | G4 B2 B2- | B2 G2 A4 | D2 D2 F2 F2 | _E2 C2 G2 G2 | D2 D2 A4 | %9
w: Lau-|ra ce-|le-|ste,|che si dol-|* ce- men-|te pas- sa per|gl'oc- chi miei den-|tro nel co-|
 D2 d2 c2 A2 | B4 A4 | G4 F2 D2 | _E4 D4 | z2 G4 B2- | B2 B2 A4 | G4 G3 G | D4 z2 d2 | d3 d G2 A2 | %18
w: re, den- tro nel|co- re,|den- tro nel|co- re|fe- co|_ ne por-|t'un spi- ri-|to, un|spi- ri- to d'a-|
 B4 F2 F2 | G4 D2 D2 | G2 G4 F2 | _E4 D2 D2 | A2 A2 B4 | A4 z4 | z8 | z4 D4 | G2 G2 _E4 | D8 | %28
w: mor- re, d'a-|mo- re, ch'in|al- tie- ro|de- sio de-|sta mia men-|te,||de-|sta mia men-|te,|
 z4 D4 | G4 F2 C2- | CD EF G4 | C4 C4 | F3 F D2 D2 | G4 C4 | z8 | z8 | z2 D2 G3 G | F2 C2 D4 | %38
w: un|ar- mo- n-||a nel|suo spi- rar si|sen- te,|||nel suo spi-|rar si sen-|
 G2 G2 B3 A | G2 F2 G2 _E2 | D2 D2 B4- | B2 G2 A3 G | F2 C2 G2 G2 | F2 D2 G4 | D8 | z8 | z8 | %47
w: te, cui nan- *|* zi non puo|star, cui nan-|* zi non _|_ puo star, i-|ra'e do- lo-|re,|||
 z4 D4 | G4 F2 D2 | G3 F _E4 | D2 D4 D2 |"^#" G4 D4 | G8 | F2 F2 D2 D2 | G8 | F4 z2 F2 | %56
w: et|tra- he con-|ten- * *|to di ce-|le- sti'o-|do-|re, che fa'i cor|lie-|ti et|
 B3 A G2 F2 |"^#" _E2 C2 D4 | G8 | z2 D2 A2 A2 | B4 A4 | z2 D2 D3 D | _E2 C2 D4 | G4 z2 D2 | %64
w: l'a- n- me con-|ten- * *|te,|che fa'i cor-|lie- ti|et l'a- ni-|me con- ten-|te, et|
 G3 G B3 A | G2 G2 G4 | D8 || z8 | z8 | z2 G2 D2 D2 | C2 C2 B,3 B, | F2 D2 G4 | _E4 D2 D2 | %73
w: l'a- ni- me _|_ con ten-|te.|||Et io che|sem- pre de- sio-|so e'in- ten-|* to, t'en-|
 G2 F2 G3 A | B2 B,2 F2 F2 | D2 D2 G4 | F2 F2 C2 C2 | G3 A B2 B2 | F2 F2 C2 C2 | G4 D4 | z2 G4 G2 | %81
w: g'al- la sua _|_ vir- tu- te'a-|per- to'il se-|no, t'en- g'al- la|sua _ _ vir-|tu- te'a- per- to'il|se- no,|che non|
 c8 | B4 z2 B2- | B2 B2 _E4 | B2 B4 G2 | G4 D2 D2 | G4 G4 | C8 | D2 D2 B,2 B,2 | F2 F2 C4 | %90
w: pas-|co il|_ cor mi-|o, il cor|mi- o, di|piu dol-|c'es-|ca so- pr'il cer-|chio d'a- mor|
 z2 G2 F2 D2 | B3 A G4 | F4 C4 | G2 G2 D2 F2 | C2 C2 G3 A | B2 G2 F4 | B,2 B2 B2 A2 | B2 G2 F4 | %98
w: ra- pir mi|sen- * *|to so-|pr'il cer- chio d'a-|mor ra- pir _|_ mi sen-|to, O- ve re-|cha fra noi,|
 z8 | z8 | z8 | z8 | z4 B4 | c4 A4 | B4 G4 | F4 F4 | c2 d2 c4 | F8 | z4 D4- | D4 A4 | z4 D4- | %111
w: ||||O-|ve re-|cha fra|noi si|bel se- re-|no,|Lau-|* ra,|dol-|
 D4 G4 | z4 C4 | D8 | z4 D4 | B,2 C2 D2 E2 | F4 C4 | D8 | G4 C4 | G4 G4 | C8 | G8 |] %122
w: * ce,|gen-|til,|so-|a- * * *|* v'e|fre-|scha, so-|a- v'e|fre-|scha.|

